icons/launchkit.svg

<?xml version="1.0" encoding="UTF-8" standalone="no"?>
<svg width="256px" height="342px" viewBox="0 0 256 342" version="1.1" xmlns="http://www.w3.org/2000/svg" xmlns:xlink="http://www.w3.org/1999/xlink" preserveAspectRatio="xMidYMid">
    <g>
        <path d="M87.4121,291.88584 L126.1931,291.88584 C126.1931,291.88584 109.8681,337.15384 106.7311,341.57384 C103.0961,336.86884 87.4121,291.88584 87.4121,291.88584 Z M129.9715,291.88584 L168.7525,291.88584 C168.7525,291.88584 152.4275,337.15384 149.2905,341.57384 C145.6555,336.86884 129.9715,291.88584 129.9715,291.88584 Z M127.9419,155.88074 C107.3999,155.88074 90.7469,139.22774 90.7469,118.68574 C90.7469,98.1427399 107.3999,81.4897399 127.9419,81.4897399 C148.4839,81.4897399 165.1369,98.1427399 165.1369,118.68574 C165.1369,139.22774 148.4839,155.88074 127.9419,155.88074 Z M253.3639,226.20474 C248.1259,199.69674 236.0369,176.79674 217.1879,157.46674 C216.7369,157.00474 215.7759,156.27974 215.7759,156.27974 C215.7759,156.27974 215.6749,154.00274 215.6619,152.80474 C215.5339,141.39874 214.0759,130.24874 211.6699,119.08674 C202.8669,78.2377399 181.5779,44.8607399 150.7649,17.1527399 C143.5639,10.6767399 128.0889,0.152739915 128.1699,0.0927399148 C129.9439,-1.20926009 112.2379,11.5377399 105.9549,17.0097399 C92.9749,28.3167399 81.7409,40.6497399 71.9489,55.1167399 C52.4659,83.9047399 41.5679,115.31774 40.6779,150.12774 C40.6289,152.05474 40.6779,156.10874 40.6779,156.10874 C40.6779,156.10874 38.5419,157.73174 36.7479,159.69674 C6.7579,193.87374 -5.8801,232.93774 2.5709,278.20374 C4.0609,286.18374 10.2799,292.77174 18.1779,293.78274 C27.0829,294.92274 34.5729,290.80874 38.7979,282.21974 C45.1809,269.24474 53.5599,257.67374 63.5189,247.18874 C65.5089,245.09474 65.6009,245.13974 66.9299,247.38274 C70.9369,254.14574 75.5789,260.47874 80.4419,266.65774 C81.5569,268.07474 81.1199,267.58074 82.2589,269.20474 L173.7389,269.20474 C178.5239,263.11074 184.9679,254.09674 188.8899,247.41674 C190.3529,244.92474 190.5019,244.77674 192.6859,247.08274 C202.8719,257.83974 210.9979,269.94574 217.5999,283.18474 C221.4729,290.95274 229.1089,294.92274 237.7059,293.72574 C245.2239,292.67974 251.7149,286.48974 253.3129,278.80174 C256.9429,261.33274 256.8319,243.75574 253.3639,226.20474 M147.9351,118.74224 C147.9351,129.75324 139.0091,138.67824 127.9991,138.67824 C116.9881,138.67824 108.0621,129.75324 108.0621,118.74224 C108.0621,107.73124 116.9881,98.8062399 127.9991,98.8062399 C139.0091,98.8062399 147.9351,107.73124 147.9351,118.74224" fill="#0092F2"></path>
    </g>
</svg>

<svg xmlns="http://www.w3.org/2000/svg" viewBox="0 0 256 341.574">
  <path fill="#0092f2" d="M87.412 291.886h38.781s-16.325 45.268-19.462 49.688c-3.635-4.705-19.319-49.688-19.319-49.688zm42.56 0h38.78s-16.325 45.268-19.462 49.688c-3.635-4.705-19.319-49.688-19.319-49.688zm-2.03-136.005c-20.542 0-37.195-16.653-37.195-37.195 0-20.543 16.653-37.196 37.195-37.196s37.195 16.653 37.195 37.196c0 20.542-16.653 37.195-37.195 37.195zm125.422 70.324c-5.238-26.508-17.327-49.408-36.176-68.738-.451-.462-1.412-1.187-1.412-1.187s-.101-2.277-.114-3.475c-.128-11.406-1.586-22.556-3.992-33.718-8.803-40.85-30.092-74.226-60.905-101.934-7.201-6.476-22.676-17-22.595-17.06 1.774-1.302-15.932 11.445-22.215 16.917-12.98 11.307-24.214 23.64-34.006 38.107-19.483 28.788-30.381 60.2-31.271 95.01-.05 1.928 0 5.982 0 5.982s-2.136 1.623-3.93 3.588C6.758 193.874-5.88 232.937 2.57 278.204c1.49 7.98 7.709 14.568 15.607 15.579 8.905 1.14 16.395-2.974 20.62-11.563 6.383-12.975 14.762-24.546 24.72-35.031 1.99-2.094 2.083-2.05 3.412.194 4.007 6.763 8.649 13.096 13.512 19.275 1.115 1.417.678.923 1.817 2.547h91.48c4.785-6.094 11.229-15.108 15.15-21.788 1.464-2.492 1.613-2.64 3.797-.334 10.186 10.757 18.312 22.863 24.914 36.102 3.873 7.768 11.509 11.738 20.106 10.54 7.518-1.045 14.009-7.235 15.607-14.923 3.63-17.47 3.519-35.046.05-52.597M147.936 118.742c0 11.011-8.926 19.936-19.936 19.936-11.011 0-19.937-8.925-19.937-19.936 0-11.01 8.926-19.936 19.937-19.936 11.01 0 19.936 8.925 19.936 19.936"/>
</svg>
